app/images/ft/trattore.svg

<svg viewBox="0 0 98 80" xmlns="http://www.w3.org/2000/svg"><path d="m23.7 34.1c-12.4 0-22.5 10.1-22.5 22.5s10.1 22.4 22.5 22.4 22.5-10.1 22.5-22.5-10.1-22.4-22.5-22.4zm0 39.3c-9.3 0-16.9-7.6-16.9-16.9s7.6-16.9 16.9-16.9 16.9 7.6 16.9 16.9c0 9.4-7.6 16.9-16.9 16.9zm0-25.3c-4.7 0-8.4 3.8-8.4 8.4 0 4.7 3.8 8.4 8.4 8.4 4.7 0 8.4-3.8 8.4-8.4s-3.8-8.4-8.4-8.4zm0 11.3c-1.6 0-2.8-1.3-2.8-2.8 0-1.6 1.3-2.8 2.8-2.8 1.6 0 2.8 1.3 2.8 2.8s-1.3 2.8-2.8 2.8zm67.9-9.8v-9.9c0-6.2-5-11.2-11.3-11.2h-5.6v-14.1c0-1.6 1.3-2.8 2.8-2.8v-5.6c-4.7 0-8.4 3.8-8.4 8.4v14.1h-12.4l-6.7-22.6h4.7v-5.6h-45v5.6h5.6v17.9c-4.8 1.2-9.2 3.5-13 6.6l3.6 4.3c5-4.1 11.4-6.4 17.9-6.4 15.5 0 28.1 12.6 28.1 28.1v8.6h11.9c1.2 8 8.2 14 16.5 14 9.3 0 16.9-7.6 16.9-16.9 0-4.9-2.2-9.4-5.6-12.5zm-70.7-26.7v-17h23.2l6.8 22.5h-8.5c-5.3-3.6-11.8-5.6-18.6-5.6-1.1 0-2 .1-2.9.1zm27.9 11.2h31.5c3.1 0 5.6 2.5 5.6 5.6v6.6c-1.8-.6-3.7-1-5.6-1h-24.8c-1.5-4.2-3.8-8-6.7-11.2zm8.2 16.8h10.8c-2.1 2.3-3.5 5.2-4.1 8.4h-6.2v-2.8c-.1-1.9-.2-3.7-.5-5.6zm23.3 22.5c-6.2 0-11.3-5-11.3-11.2s5-11.2 11.3-11.2c6.2 0 11.3 5 11.3 11.2s-5.1 11.2-11.3 11.2zm2.8-11.2c0 1.6-1.3 2.8-2.8 2.8s-2.8-1.3-2.8-2.8c0-1.6 1.3-2.8 2.8-2.8s2.8 1.2 2.8 2.8z" fill="#c0b07f"/></svg>

<?xml version="1.0" encoding="utf-8"?>
<!-- Generator: Adobe Illustrator 22.0.0, SVG Export Plug-In . SVG Version: 6.00 Build 0)  -->
<svg version="1.1" baseProfile="basic" id="Layer_1"
	 xmlns="http://www.w3.org/2000/svg" xmlns:xlink="http://www.w3.org/1999/xlink" x="0px" y="0px" viewBox="0 0 98 80"
	 xml:space="preserve">
<style type="text/css">
	.st0{fill:#C0B07F;}
</style>
<g>
	<path class="st0" d="M23.7,34.1c-12.4,0-22.5,10.1-22.5,22.5C1.2,69,11.3,79,23.7,79s22.5-10.1,22.5-22.5S36.1,34.1,23.7,34.1
		L23.7,34.1z M23.7,73.4c-9.3,0-16.9-7.6-16.9-16.9s7.6-16.9,16.9-16.9s16.9,7.6,16.9,16.9C40.6,65.9,33,73.4,23.7,73.4L23.7,73.4z"
		/>
	<path class="st0" d="M23.7,48.1c-4.7,0-8.4,3.8-8.4,8.4c0,4.7,3.8,8.4,8.4,8.4c4.7,0,8.4-3.8,8.4-8.4S28.3,48.1,23.7,48.1
		L23.7,48.1z M23.7,59.4c-1.6,0-2.8-1.3-2.8-2.8c0-1.6,1.3-2.8,2.8-2.8c1.6,0,2.8,1.3,2.8,2.8S25.2,59.4,23.7,59.4L23.7,59.4z"/>
	<path class="st0" d="M91.6,49.6v-9.9c0-6.2-5-11.2-11.3-11.2h-5.6V14.4c0-1.6,1.3-2.8,2.8-2.8V6c-4.7,0-8.4,3.8-8.4,8.4v14.1H56.7
		L50,5.9h4.7V0.3h-45v5.6h5.6v17.9c-4.8,1.2-9.2,3.5-13,6.6l3.6,4.3c5-4.1,11.4-6.4,17.9-6.4c15.5,0,28.1,12.6,28.1,28.1V65h11.9
		C65,73,72,79,80.3,79c9.3,0,16.9-7.6,16.9-16.9C97.2,57.2,95,52.7,91.6,49.6L91.6,49.6z M20.9,22.9v-17h23.2l6.8,22.5h-8.5
		c-5.3-3.6-11.8-5.6-18.6-5.6C22.7,22.8,21.8,22.9,20.9,22.9L20.9,22.9z M48.8,34.1h31.5c3.1,0,5.6,2.5,5.6,5.6v6.6
		c-1.8-0.6-3.7-1-5.6-1H55.5C54,41.1,51.7,37.3,48.8,34.1L48.8,34.1z M57,50.9h10.8c-2.1,2.3-3.5,5.2-4.1,8.4h-6.2v-2.8
		C57.4,54.6,57.3,52.8,57,50.9L57,50.9z M80.3,73.4c-6.2,0-11.3-5-11.3-11.2S74,51,80.3,51c6.2,0,11.3,5,11.3,11.2
		C91.6,68.4,86.5,73.4,80.3,73.4L80.3,73.4z"/>
	<path class="st0" d="M83.1,62.2c0,1.6-1.3,2.8-2.8,2.8s-2.8-1.3-2.8-2.8c0-1.6,1.3-2.8,2.8-2.8S83.1,60.6,83.1,62.2L83.1,62.2z"/>
</g>
</svg>
